X: 6701
T: Ceo Mara
R: polka
M: 2/4
K: Amajor
e|:A2 c/B/A/c/|ec AB|c/B/A eA|cB Be|
A2 cA/c/|ec AB/c/|dB GB|1 BA Ae:|2 BA Ag||
|:a2 g/a/g/f/|ec AB||c/B/A eA|cB Bf/g/|
aa g/a/g/f/|ec AB/c/|dB GB|1 BA Af/g/:|2 BA Ae||

